icons/podstation.svg

<svg width="32" height="32" viewBox="0 0 32 32" fill="none" xmlns="http://www.w3.org/2000/svg">
<path fill-rule="evenodd" clip-rule="evenodd" d="M3.36627 28.6337C0.910867 26.1783 0 22.1783 0 16C0 9.82167 0.910867 5.82167 3.36627 3.36627C5.82167 0.910867 9.82167 0 16 0C22.1783 0 26.1783 0.910867 28.6337 3.36627C31.0891 5.82167 32 9.82167 32 16C32 22.1783 31.0891 26.1783 28.6337 28.6337C26.1783 31.0891 22.1783 32 16 32C9.82167 32 5.82167 31.0891 3.36627 28.6337Z" fill="white"/>
<path fill-rule="evenodd" clip-rule="evenodd" d="M6.40156 6H6V11.6023H6.40156C14.1705 11.6023 20.3977 17.8295 20.3977 25.5984V26H26V25.5984C26 14.7944 17.2056 6 6.40156 6ZM6.40156 13.1988H6V18.8012H6.40156C10.1871 18.8012 13.1988 21.8129 13.1988 25.5984V26H18.8012V25.5984C18.8012 18.7777 13.2223 13.1988 6.40156 13.1988ZM6.40156 20.3977H6V26H11.6023V25.5984C11.6023 22.7118 9.2616 20.3977 6.40156 20.3977Z" fill="black"/>
</svg>

<svg xmlns="http://www.w3.org/2000/svg" width="32" height="32" fill="none" viewBox="0 0 32 32">
  <path fill="#fff" fill-rule="evenodd" d="M3.366 28.634C.911 26.178 0 22.178 0 16S.91 5.822 3.366 3.366C5.822.911 9.822 0 16 0s10.178.91 12.634 3.366C31.089 5.822 32 9.822 32 16s-.91 10.178-3.366 12.634C26.178 31.089 22.178 32 16 32s-10.178-.91-12.634-3.366Z" clip-rule="evenodd"/>
  <path fill="#000" fill-rule="evenodd" d="M6.402 6H6v5.602h.402a13.946 13.946 0 0 1 13.996 13.996V26H26v-.402C26 14.794 17.206 6 6.402 6Zm0 7.199H6V18.8h.402a6.757 6.757 0 0 1 6.797 6.797V26H18.8v-.402c0-6.82-5.579-12.4-12.4-12.4Zm0 7.199H6V26h5.602v-.402a5.2 5.2 0 0 0-5.2-5.2Z" clip-rule="evenodd"/>
</svg>
